!!!!SEGMENT: pl-kk--kk-i-382--071_anonim--offertorium-nro-12.krn
!!!cenid: 18xx:1573
!!!COM: Anonim
!!!COM-rismID: pe30004985
!!!CDT:
!!!CNT:
!!!OTL: Offertorium Nro 12
!!!PDT:
!!!AGN: Sacred
!!!SMS-siglum: PL-Kk
!!!SMS-shelfmark: Kk.I.382
!!!SMS-shelfwork: 057 W
!!!SMS-variant:
!!!SMS-altvar:
!!!NIFC-rismSourceID: 1001141119
!!!NIFC-islandoraID: pl-kk:6162
!!!URL-pdf-islandora: https://repozytorium.nifc.pl/islandora/object/pl-kk%3A6162/datastream/PDF/view
!!!URL-scan: https://polish.musicsources.pl/pl/lokalizacje/galeria/rekopisy/5994 @EN{Scan on Polish Music Herritage in Open Access Website} @PL{Skany w portalu Dziedzictwo Muzyki Polskiej w otwartym dostępie}
!!!ONB-nifc: UWAGA: skany 0045 (S/T1), 0117 (T2), 0190 (A/B1), 0266-7 (B2)
!!!AIN: 1 alto 1 bass 2 tenor
!!!key:
**kern	**text	**kern	**text	**kern	**text	**kern	**text
*part4	*part4	*part3	*part3	*part2	*part2	*part1	*part1
*staff4	*staff4	*staff3	*staff3	*staff2	*staff2	*staff1	*staff1
*Ibass	*	*Itenor	*	*Ialto	*	*Itenor	*
*I"Basso II	*	*I"Tenore II	*	*I"Alto vel Basso I	*	*I"Soprano vel Tenore I.	*
*I'B II	*	*I'T II	*	*I'A vel B I	*	*I'S vel T I	*
*clefF4	*	*clefC4	*	*clefC3	*	*clefC1	*
*k[b-]	*	*k[b-]	*	*k[b-]	*	*k[b-]	*
*g:	*	*g:	*	*g:	*	*g:	*
*M4/4	*	*M4/4	*	*M4/4	*	*M4/4	*
*met(c)	*	*met(c)	*	*met(c)	*	*met(c)	*
=1	=1	=1	=1	=1	=1	=1	=1
!LO:TX:t=P:problem=przy kluczu dopisany ołówkiem bemol E-	!	!	!	!LO:TX:t=P:problem=przy kluczu dopisany ołówkiem bemol F-	!	!LO:TX:t=P:problem=przy kluczu dopisany ołówkiem bemol e-	!
!LO:TX:t=P:problem=all\right&colon; global	!	!	!	!LO:TX:t=P:problem=all\right&colon; global	!	!LO:TX:t=P:problem=all\right&colon; global	!
!LO:TX:t=P:problem=oznaczenie metryczne C z kropką	!	!LO:TX:t=P:problem=oznaczenie metryczne C z kropką	!	!LO:TX:t=P:problem=oznaczenie metryczne C z kropką	!	!LO:TX:t=P:problem=oznaczenie metryczne C z kropką	!
4G\	Sta-	4G/	Sta-	4d\	Sta-	4b-\	Sta-
4G\	-bat	4G/	-bat	4g\	-bat	4dd\	-bat
!	!	!LO:TX:t=P:problem=all\right&colon; global	!	!	!	!	!
4B-\	Ma-	4d\	Ma-	4fn\	Ma-	4b-\	Ma-
4B-\	-ter	4d\	-ter	4f\	-ter	4b-\	-ter
=2	=2	=2	=2	=2	=2	=2	=2
4F\	do-	4c\	do-	4f\	do-	4a\	do-
4F\	-lo-	4c\	-lo-	4f\	-lo-	4a\	-lo-
*	*	*2\right	*	*	*	*2\right	*
4G\	-ro-	2B-X\	-ro-	(4d\	-ro-	2g\	-ro-
4C#X/	.	.	.	4en\)	.	.	.
=3	=3	=3	=3	=3	=3	=3	=3
*2\right	*	*	*	*2\right	*	*	*
2D\	-sa,	2A\	-sa	2d\	-sa	2f#X/	-sa
4A\	jux-	4c#X\	jux-	4en\	jux-	4a\	jux-
(8A\L	-ta	4c#\	-ta	4e\	-ta	4a\	-ta
8G\J)	.	.	.	.	.	.	.
=4	=4	=4	=4	=4	=4	=4	=4
(8F\L	cru-	4d\	cru-	4d\	cru-	4a\	cru-
8E\J)	.	.	.	.	.	.	.
4D\	-cem	4f\	-cem	4d\	-cem	4a\	-cem
4A\	la-	4en\	la-	4c#X\	la-	4a\	la-
4D\	-chri-	4d\	-chri-	4d\	-chri-	4a\	-chri-
=5	=5	=5	=5	=5	=5	=5	=5
(4A\	-mo-	2e\	-mo-	(4d\	-mo-	2a\	-mo-
4AA/)	.	.	.	4c#X\)	.	.	.
2D\	-sa	2d\	-sa	2d\	-sa	2a\	-sa
=6	=6	=6	=6	=6	=6	=6	=6
4BB-X/	dum	4d\	dum	4fn\	dum	4b-\	dum
4BB-/	pen-	4d\	pen-	4f\	pen-	4b-\	pen-
4F\	-de-	4cn\	-de-	(4.f\	-de-	4a\	-de-
4F\	-bat	4A\	-bat	.	.	4a\	-bat
.	.	.	.	8e-X\)	.	.	.
=7	=7	=7	=7	=7	=7	=7	=7
4G\	dum	4B-\	fi-	(4d\	-bat	(>2g/	fi-
4C/	pen-	8c\L	.	4e-X\)	.	.	.
.	.	8B-\J	.	.	.	.	.
4D/	-de-	[2A\	.	[2d\	fi-	4f#X/	.
4GG/	-bat	.	.	.	.	[4g/	.
=8	=8	=8	=8	=8	=8	=8	=8
8D\	Fi-	4.A\]	.	4.d\]	.	4g/])	.
8D\	-li-	.	.	.	.	.	.
4D\	-us	.	.	.	.	4f#X/	-li-
.	.	8A\	-li-	8d\	-li-	.	.
4.G\	dum	4G/	-us	4d\	-us	4g/	-us.
.	.	4r	.	4r	.	4r	.
8G\	pen-	.	.	.	.	.	.
=9	=9	=9	=9	=9	=9	=9	=9
!	!	!	!	!	!	!LO:TX:b:t=V&colon; S&colon;	!
!	!	!LO:TX:t=P:problem=linia falista dopisana ołówkiem w tt. 9-13	!	!LO:TX:a:t=1.	!	!LO:TX:b:t=1.	!
4Fn\	-de-	4.d\	dum	1r	.	1r	.
4D\	-bat	.	.	.	.	.	.
.	.	8d\	pen-	.	.	.	.
(4E-X\	Fi-	4c\	-de-	.	.	.	.
4F\	.	4A\	-bat	.	.	.	.
=10	=10	=10	=10	=10	=10	=10	=10
4G\)	.	4B-X\	dum	4.g\	dum	2r	.
4E-X\	-li-	4c\	pen-	.	.	.	.
.	.	.	.	8g\	pen-	.	.
4D\	-us	(4d\	-de-	4fn\	-de-	4.dd\	dum
4r	.	4B-\)	.	4d\	-bat	.	.
.	.	.	.	.	.	8dd\	pen-
=11	=11	=11	=11	=11	=11	=11	=11
2r	.	2A/	-bat	4en\	dum	4cc\	-de-
.	.	.	.	4f\	pen-	4a\	-bat
4G\	dum	4G/	dum	(4g\	-de-	4b-\	dum
4A\	pen-	4A/	pen-	8f\L	.	4cc\	pen-
.	.	.	.	8e\J)	.	.	.
=12	=12	=12	=12	=12	=12	=12	=12
4.B-\	-de-	4.B-\	-de-	4d\	-bat	4dd\	-de-
.	.	.	.	2g\	fi-	4b-\	-bat
8c\	-bat	8c\	-bat	.	.	.	.
4.d\	Fi-	4.d\	fi-	.	.	4.a\	fi-
.	.	.	.	4f#X\	-li-	.	.
8D\	-li-	8D/	-li-	.	.	8a\	-li-
=13	=13	=13	=13	=13	=13	=13	=13
2G\	-us	2G/	-us	2g\	-us	2g\	-us
4BB-/	dum	4d\	dum	4fn\	dum	4b-\	dum-
4BB-/	pen-	4d\	pen-	4f\	pen-	4b-\	-pen-
=14	=14	=14	=14	=14	=14	=14	=14
4F\	-de-	(4c\	-de-	(4.f\	-de-	4a\	-de-
4F\	-bat	4A\)	.	.	.	4a\	-bat
.	.	.	.	8e-X\)	.	.	.
(4G\	Fi-	(4B-\	-bat	(4d\	-bat	[>2g/	fi-
4C/	.	4c\)	.	4e-\)	.	.	.
=15	=15	=15	=15	=15	=15	=15	=15
4.D\)	.	4.A\	fi-	4.d\	fi-	4g/]	.
.	.	.	.	.	.	4f#X/	-li-
8D\	-li-	8A\	-li-	8d\	-li-	.	.
2GG/	-us.	2Bn\	-us	2d\	-us.	2g/	-us.
=16|!	=16|!	=16|!	=16|!	=16|!	=16|!	=16|!	=16|!
*	*	*M4/4	*	*	*	*	*
*	*	*met(c)	*	*	*	*	*
*	*	*k[b-]	*	*	*	*	*
!	!	!LO:TX:t=P:problem=oznaczenie metryczne C z kropką	!	!	!	!	!
4G\	Cu-	4B-\	Cu-	4d\	Cu-	4g\	Cu-
4G\	-jus	4d\	-jus	4g\	-jus	4g\	-jus
4B-\	a-	4B-\	a-	4fn\	a-	4dd\	a-
4B-\	-ni-	4B-\	-ni-	4f\	-ni-	4dd\	-ni-
=17	=17	=17	=17	=17	=17	=17	=17
4F\	-mam	4A\	-mam	4f\	-mam	4cc\	-mam
4F\	ge-	4A\	ge-	4f\	ge-	4cc\	ge-
(4G\	-men-	2G/	-men-	(4d\	-men-	2b-X\	-men-
4C#X/)	.	.	.	4en\)	.	.	.
=18	=18	=18	=18	=18	=18	=18	=18
2D\	-tem,	2F#X/	-tem	2d\	-tem,	2a\	-tem
4A\	con-	4A\	con-	4en\	con-	4cc#X\	con-
(8A\L	-tris-	4A\	-tris-	4e\	-tri-	4cc#\	-tris-
!LO:TX:b:t=V&colon; S&colon;	!	!	!	!	!	!	!
8G\J)	.	.	.	.	.	.	.
=19	=19	=19	=19	=19	=19	=19	=19
!LO:SIC:v:l:s=-tan-	!	!	!	!	!	!	!
(8F\L	-stan-	4A\	-tan-	4d\	-stan-	4dd\	-tan-
8E\J)	.	.	.	.	.	.	.
4D\	-tem	4A\	-tem	4d\	-tem	4ff\	-tem
4A\	et	4A\	et	4c#X\	et	4een\	et
4D\	do-	4A\	do-	4d\	do-	4dd\	do-
=20	=20	=20	=20	=20	=20	=20	=20
(4A\	-len-	2A\	-len-	(4d\	-len-	2ee\	-len-
4AA/)	.	.	.	4c#X\)	.	.	.
2D\	-tem	2A\	-tem	2d\	-tem	2dd\	-tem
=21	=21	=21	=21	=21	=21	=21	=21
4BB-/	per-	4B-\	per-	4fn\	per-	4dd\	per-
4BB-/	-tran-	4B-\	-tran-	4f\	-tran-	4dd\	-tran-
4F\	-si-	4A\	-si-	4.f\	-si-	4ccn\	-si-
4F\	-vit	4A\	-vit	.	.	4a\	-vit
.	.	.	.	8e-X\	-vit	.	.
=22	=22	=22	=22	=22	=22	=22	=22
4G\	gla-	8G/L	gla-	(4d\	gla-	(8b-\L	gla-
.	.	8B-/	.	.	.	8dd\	.
4C/	.	8A/	.	4e-X\	.	8cc\	.
.	.	8G/J	.	.	.	8b-\J	.
4.D/	.	4.G/	.	4.d\)	.	8a\)	.
.	.	.	.	.	.	8a\	-di-
.	.	.	.	.	.	4a\	-us
8D/	-di-	8F#X/	-di-	8d\	-di-	.	.
=23	=23	=23	=23	=23	=23	=23	=23
4GG/	-us	4G/	-us	4d\	-us	4dd\	per-
4r	.	4r	.	4r	.	4b-X\	-tran-
4G\	per-	2r	.	4g\	per-	4b-\	-si-
4E-X\	-tran-	.	.	4e-X\	-tran-	4cc\	-vit
=24	=24	=24	=24	=24	=24	=24	=24
4F#X\	-si-	4d\	per-	4f#X\	-si-	4a\	per-
4G\	-vit	4B-\	-tran-	4g\	-vit	4b-\	-tran-
4G\	per-	4B-\	-si-	4d\	per-	4g\	-si-
4E-X\	-tran-	4c\	-vit	4G/	-tran-	4cc\	-vit
=25	=25	=25	=25	=25	=25	=25	=25
4D/	-si-	4d\	per-	4A/	-si-	4f#X/	per-
4BB-X/	-vit	4d\	-tran-	4d\	-vit	4g/	-tran-
4AA/	per-	4c\	-si-	(4en\	per-	4a\	-si-
4D/	-tran-	4A\	-vit	4d\)	-tran-	4f#X/	-vit
=26	=26	=26	=26	=26	=26	=26	=26
4GG/	-si-	8B-\L	gla-	4d\	-si-	(8g\L	gla-
.	.	8d\	.	.	.	8b-X\	.
4C/	-vit	8c\	.	4e-X\	-vit	8a\	.
.	.	8B-\J	.	.	.	8g\J	.
(>4D/	gla-	4A\	.	[2d\	gla-	4f#X/	.
4GG/	.	(4B-\	.	.	.	4g/)	.
=27	=27	=27	=27	=27	=27	=27	=27
4.D/)	.	4.A\)	.	4.d\]	.	4.g/	.
8D/	-di-	8A\	-di-	8d\	-di-	8f#X/	-di-
!	!	!LO:TX:b:t=V&colon; S&colon;	!	!	!	!	!
2GG/	-us.	2Bn\	-us.	2d\	-us.	2g/	-us.
=28|!	=28|!	=28|!	=28|!	=28|!	=28|!	=28|!	=28|!
*	*	*M4/4	*	*	*	*	*
*	*	*met(c)	*	*	*	*	*
*	*	*k[b-]	*	*	*	*	*
!	!	!LO:TX:t=P:problem=oznaczenie metryczne C z kropką	!	!	!	!	!
4G\	O	4G/	O	4d\	O	4b-\	O
4G\	quam	4G/	quam	4g\	quam	4dd\	quam
4B-\	tri-	4d\	tri-	4fn\	tri-	4b-\	tri-
4B-\	-stis	4d\	-stis	4f\	-stis	4b-\	-stis
=29	=29	=29	=29	=29	=29	=29	=29
4F\	et	4c\	et	4f\	et	4a\	et
4F\	af-	4c\	af-	4f\	af-	4a\	af-
!LO:SIC:v:l:s=-fli-	!	!LO:SIC:v:l:s=-fli-	!	!	!	!	!
(4G\	-li-	2B-\	-li-	(4d\	-fli-	2g\	-fli-
4C#X/)	.	.	.	4en\)	.	.	.
=30	=30	=30	=30	=30	=30	=30	=30
2D\	-cta	2A\	-cta	2d\	-cta	2f#X/	-cta
4A\	fu-	4c#X\	fu-	4en\	fu-	4a\	fu-
(8A\L	-it	4c#\	-it	4e\	-it	4a\	-it
8G\J)	.	.	.	.	.	.	.
=31	=31	=31	=31	=31	=31	=31	=31
(8F\L	il-	4d\	il-	4d\	il-	4a\	il-
8E\J)	.	.	.	.	.	.	.
4D\	-la	4f\	-la	4d\	-la	4a\	-la
4A\	be-	4en\	be-	4c#X\	be-	4a\	be-
4D\	-ne-	4d\	-ne-	4d\	-ne-	4a\	-ne-
=32	=32	=32	=32	=32	=32	=32	=32
(4A\	-di-	2e\	-dic-	(4d\	-dic-	2a\	-dic-
4AA/)	.	.	.	4c#X\)	.	.	.
2D\	-cta	2d\	-ta	2d\	-ta	2a\	-ta
=33	=33	=33	=33	=33	=33	=33	=33
4BB-X/	Ma-	4d\	Ma-	4fn\	Ma-	4b-\	Ma-
4BB-/	-ter	4d\	-ter	4f\	-ter	4b-\	-ter
4F\	u-	4cn\	u-	4.f\	u-	4a\	u-
4F\	-ni	4A\	-ni-	.	.	4a\	-ni-
.	.	.	.	8e-X\	-ni-	.	.
=34	=34	=34	=34	=34	=34	=34	=34
(4G\	u-	4B-\	-ge-	(4d\	-ge-	2g/	-ge-
4C/)	.	8c\L	.	4e-X\	.	.	.
.	.	8B-\J	.	.	.	.	.
(4D\	-ni-	[2A\	.	4d\	.	4f#X/	.
4GG/)	.	.	.	4d\	.	[>4g/	.
=35	=35	=35	=35	=35	=35	=35	=35
8D\	-ge-	4.A\]	.	4.d\)	.	4.g/]	.
8D\	-ni-	.	.	.	.	.	.
4D\	-ti	.	.	.	.	.	.
.	.	8A\	-ni-	8d\	-ni-	8f#X/	-ni-
4.G\	Ma-	4G/	-ti	4d\	-ti,	4g/	-ti
.	.	4r	.	4r	.	4r	.
8G\	-ter	.	.	.	.	.	.
=36	=36	=36	=36	=36	=36	=36	=36
!	!	!	!	!LO:TX:a:t=1.	!	!LO:TX:b:t=1.	!
4Fn\	u-	4.d\	Ma-	1r	.	1r	.
4D\	-ni-	.	.	.	.	.	.
.	.	8d\	-ter	.	.	.	.
(4E-X\	-ge-	4c\	u-	.	.	.	.
(4F\)	.	4A\	-ni-	.	.	.	.
=37	=37	=37	=37	=37	=37	=37	=37
4G\)	.	(4B-X\	-ge-	4.g\	Ma-	2r	.
4E-X\	-ni-	4c\	.	.	.	.	.
.	.	.	.	8g\	-ter	.	.
4D\	-ti	4d\)	.	4fn\	u-	4.dd\	Ma-
4r	.	4B-\	-ni-	4d\	-ni	.	.
.	.	.	.	.	.	8dd\	-ter
=38	=38	=38	=38	=38	=38	=38	=38
2r	.	2A/	-ti	4en\	Ma-	4ccn\	u-
.	.	.	.	4f\	-ter	4a\	-ni
4G\	Ma-	4G/	Ma-	4g\	u-	4b-\	Ma-
4A\	-ter	4A/	-ter	(8f\L	-ni-	4cc\	-ter
.	.	.	.	8e\J)	.	.	.
=39	=39	=39	=39	=39	=39	=39	=39
4.B-\	u-	4.B-\	u-	(4d\	-ge-	4dd\	u-
.	.	.	.	2g\)	.	4b-\	-ni-
8c\	-ni-	8c\	-ni-	.	.	.	.
4.d\	-ge-	4.d\	-ge-	.	.	4.a\	-ge-
.	.	.	.	4f#X\	-ni-	.	.
8D\	-ni-	8D/	-ni-	.	.	8a\	-ni-
=40	=40	=40	=40	=40	=40	=40	=40
!	!	!LO:TX:t=P:problem=znak oddechu na 2 linii	!	!	!	!	!
2G\	-ti	2G,</	-ti	2g\	-ti	2g\	-ti
4BB-/	Ma-	4d\	Ma-	4fn\	Ma-	4b-\	Ma-
4BB-/	-ter	4d\	-ter	4f\	-ter	4b-\	-ter
=41	=41	=41	=41	=41	=41	=41	=41
4F\	u-	4c\	u-	(4.f\	u-	4a\	u-
4F\	-ni-	4A\	-ni-	.	.	4a\	-ni-
.	.	.	.	8e-X\)	.	.	.
4G\	-ge-	(4B-\	-ge-	(4d\	-ni-	[>2g/	-ge-
4C/	.	4c\	.	4e-X\)	.	.	.
=42	=42	=42	=42	=42	=42	=42	=42
4.D\	.	4.A\)	.	4.d\	-ge-	4.g/]	.
!	!	!	!	!	!	!LO:N:vis=4	!
8D\	-ni-	8A\	-ni-	8d\	-ni-	8f#X/	-ni-
!	!	!	!	!LO:TX:b:t=V&colon; S&colon;	!	!	!
2GG/	-ti.	2Bn\	-ti	2d\	-ti.	2g/	-ti.
=43|!	=43|!	=43|!	=43|!	=43|!	=43|!	=43|!	=43|!
*	*	*M4/4	*	*	*	*	*
*	*	*met(c)	*	*	*	*	*
!	!	!LO:SIC:v:l:s=Quae	!	!	!	!	!
!LO:SIC:v:l:s=Quae	!	!LO:TX:t=P:problem=oznaczenie metryczne C z kropką	!	!LO:SIC:v:l:s=Quae	!	!LO:SIC:v:l:s=quae	!
4G\	Que	4B-X\	Que	4d\	Que	4g\	que
!LO:SIC:v:l:s=mae-	!	!LO:SIC:v:l:s=mae-	!	!LO:SIC:v:l:s=mae-	!	!LO:SIC:v:l:s=mae-	!
4G\	me-	4d\	me-	4g\	me-	4g\	me-
4B-\	-re-	4B-\	-re-	4fn\	-re-	4dd\	-ra-
4B-\	-bat	4B-\	-bat	4f\	-bat	4dd\	-bat
=44	=44	=44	=44	=44	=44	=44	=44
4F\	et	4A\	et	4f\	et	4cc\	et
4F\	do-	4A\	do-	4f\	do-	4cc\	do-
(4G\	-le-	2G/	-le-	(4d\	-le-	2b-X\	-le-
4C#X/)	.	.	.	4en\)	.	.	.
=45	=45	=45	=45	=45	=45	=45	=45
2D\	-bat	2F#X/	-bat	2d\	-bat	2a\	-bat
4A\	pi-	4A\	pi-	4en\	pi-	4cc#X\	et
(8A\L	-a	4A\	-a	4e\	-a	4cc#\	tre-
8G\J)	.	.	.	.	.	.	.
=46	=46	=46	=46	=46	=46	=46	=46
(8Fn\L	Ma-	4A\	Ma-	4d\	Ma-	4dd\	-me-
8E\J)	.	.	.	.	.	.	.
4D\	-ter	4A\	-ter	4d\	-ter	4ff\	-bat
4A\	cum	4A\	cum	4c#X\	cum	4een\	cum
4D\	vi-	4A\	vi-	4d\	vi-	4dd\	vi-
=47	=47	=47	=47	=47	=47	=47	=47
(4A\	-de-	2A\	-de-	(4d\	-de-	2ee\	-de-
4AA/)	.	.	.	4c#X\)	.	.	.
2D\	-bat	2A\	-bat	2d\	-bat	2dd\	-bat
=48	=48	=48	=48	=48	=48	=48	=48
4BB-/	na-	4B-\	na-	4fn\	na-	4dd\	na-
4BB-/	-ti	4B-\	-ti	4f\	-ti	4dd\	-ti
!LO:SIC:v:l:s=poe-	!	!LO:SIC:v:l:s=poe-	!	!LO:SIC:v:l:s=poe-	!	!LO:SIC:v:l:s=poe-	!
4F\	pe-	4A\	pe-	4.f\	pe-	4ccn\	pe-
4F\	-nas	4A\	-nas	.	.	4a\	-nas
.	.	.	.	8e-X\	-nas	.	.
=49	=49	=49	=49	=49	=49	=49	=49
!LO:SIC:v:l:s=poe-	!	!	!	!LO:SIC:v:l:s=poe-	!	!	!
4G\	pe-	(8G/L	in-	4d\	pe-	8b-\L	in-
.	.	8B-/	.	.	.	8dd\	.
4C/	-nas	8A/	.	4e-X\	-nas	8cc\	.
.	.	8G/J)	.	.	.	8b-\J	.
4.D\	in-	4.G/	.	4.d\	in-	8a\	.
.	.	.	.	.	.	8a\	-cli-
.	.	.	.	.	.	4a\	-ti
8D\	-cli-	8F#X/	-cli-	8d\	-cli-	.	.
=50	=50	=50	=50	=50	=50	=50	=50
4GG/	-ti	4G/	-ti	4d\	-ti,	4dd\	na-
4r	.	4r	.	4r	.	4b-X\	-ti
!	!	!	!	!	!	!LO:SIC:v:l:s=poe-	!
4G\	na-	2r	.	4g\	na-	4b-\	pe-
4E-X\	-ti	.	.	4e-X\	-ti	4cc\	-nas
=51	=51	=51	=51	=51	=51	=51	=51
!LO:SIC:v:l:s=poe-	!	!	!	!LO:SIC:v:l:s=poe-	!	!	!
4F#X\	pe-	4d\	na-	4f#X\	pe-	4a\	na-
4G\	-nas	4B-\	-ti	4g\	-nas	4b-\	-ti
!	!	!LO:SIC:v:l:s=poe-	!	!	!	!LO:SIC:v:l:s=poe-	!
4G\	na-	4B-\	pe-	4d\	na-	4g\	pe-
4E-X\	-ti	4c\	-nas	4G/	-ti	4cc\	-nas
=52	=52	=52	=52	=52	=52	=52	=52
!LO:SIC:v:l:s=poe-	!	!	!	!LO:SIC:v:l:s=poe-	!	!	!
4D\	pe-	4d\	na-	4A/	pe-	4f#X/	na-
4BB-/	-nas	4d\	-ti	4d\	-nas	4g/	-ti
!	!	!LO:SIC:v:l:s=poe-	!	!	!	!LO:SIC:v:l:s=poe-	!
4AA/	na-	4c\	pe-	4en\	na-	4a\	pe-
4D/	-ti	4A\	-nas	4d\	-ti	4f#X/	-nas
=53	=53	=53	=53	=53	=53	=53	=53
!LO:SIC:v:l:s=poe-	!	!	!	!LO:SIC:v:l:s=poe-	!	!	!
4GG/	pe-	8B-\L	in-	4d\	pe-	(8g\L	in-
.	.	8d\	.	.	.	8b-\	.
4C/	-nas	8c\	.	4e-X\	-nas	8a\	.
.	.	8B-\J	.	.	.	8g\J	.
!LO:SIC:v:l:s=poe-	!	!	!	!	!	!	!
4D/	pe-	4A\	.	[2d\	in-	4f#X/	.
4GG/	-nas	4B-\	.	.	.	[>4g/)	.
=54	=54	=54	=54	=54	=54	=54	=54
4.D/	in-	4.A\	.	4.d\]	.	4g/]	.
.	.	.	.	.	.	4f#X/	-cli-
8D/	-cli-	8A\	-cli-	8d\	-cli-	.	.
2GG/	-ti.	2Bn\	-ti.	2d\	-ti.	2g\	-ti.
==	==	==	==	==	==	==	==
*-	*-	*-	*-	*-	*-	*-	*-
!!!RDF**kern: > = above
!!!RDF**kern: < = below
!!!system-decoration: [(s1,s2,s3,s4)]
!!!EED: Andrzej Borzym
!!!EEV: 2021-02-12
!!!ENC: Andrzej Kubiczek
!!!END: 2021-01-31
